!!!COM:	Pierre de la Rue
**kern	**kern
*part2	*part1
*staff2	*staff1
*clefF4	*clefGv2
*k[]	*k[]
*M2/1	*M2/1
=1-	=1-
0r	1A
.	1c
=2	=2
1D	1d
1F	1A
=3	=3
1G	2r
.	2.d
1D	.
.	4c
.	4B
.	4A
=4	=4
2r	2B
1G	2G
.	1A
2F	.
=5	=5
2.G	1G
4F	.
4E	2r
4D	.
[2E	[2c
=6	=6
2E]	2c]
4D	4B
4C	4A
2D	2B
2E	2G
=7	=7
2AA	1A
1D	.
.	2D
2GG	[2G
=8	=8
2C	4G]
.	4A
2D	2B
2E	2c
2F	[2A
=9	=9
1D	2A]
.	2.d
2.F	.
.	4c
.	4B
4E	4A
=10	=10
4D	2B
4C	.
4BB	1A
4AA	.
1BB	.
.	2G
=11	=11
0AA	1A
.	2r
.	[2E
=12	=12
2r	2E]
2AA	2F
2BB	2D
2GG	[2E
=13	=13
2AA	4E]
.	4F
2BB	2.G
2.C	.
.	4F
.	4E
4BB	4D
=14	=14
2AA	2C
2GG	2G
1FF	2A
.	2c
=15	=15
2r	2B
2C	1A
2D	.
2F	2F
=16	=16
2E	4G
.	4F
1D	4E
.	4D
.	1E
2C	.
=17	=17
1D	2D
.	2F
2r	2G
2D	[2A
=18	=18
2F	2A]
2G	2B
2.A	2c
.	[2A
4G	.
=19	=19
2F	2A]
4E	2.d
4D	.
1E	.
.	4c
.	2c
=20	=20
0D	0d
==	==
*-	*-
